src/images/icons/v2/design-tool.svg

<?xml version="1.0" encoding="UTF-8" standalone="no"?>
<svg
   xmlns:dc="http://purl.org/dc/elements/1.1/"
   xmlns:cc="http://creativecommons.org/ns#"
   xmlns:rdf="http://www.w3.org/1999/02/22-rdf-syntax-ns#"
   xmlns:svg="http://www.w3.org/2000/svg"
   xmlns="http://www.w3.org/2000/svg"
   xmlns:sodipodi="http://sodipodi.sourceforge.net/DTD/sodipodi-0.dtd"
   xmlns:inkscape="http://www.inkscape.org/namespaces/inkscape"
   id="Layer_1"
   enable-background="new 0 0 124 124"
   height="512"
   viewBox="0 0 124 124"
   width="512"
   version="1.1"
   sodipodi:docname="004-design-tool.svg"
   inkscape:version="0.92.4 (5da689c313, 2019-01-14)">
  <metadata
     id="metadata37">
    <rdf:RDF>
      <cc:Work
         rdf:about="">
        <dc:format>image/svg+xml</dc:format>
        <dc:type
           rdf:resource="http://purl.org/dc/dcmitype/StillImage" />
      </cc:Work>
    </rdf:RDF>
  </metadata>
  <defs
     id="defs35" />
  <sodipodi:namedview
     pagecolor="#ffffff"
     bordercolor="#666666"
     borderopacity="1"
     objecttolerance="10"
     gridtolerance="10"
     guidetolerance="10"
     inkscape:pageopacity="0"
     inkscape:pageshadow="2"
     inkscape:window-width="1205"
     inkscape:window-height="809"
     id="namedview33"
     showgrid="false"
     inkscape:zoom="0.23046875"
     inkscape:cx="620.73459"
     inkscape:cy="333.86706"
     inkscape:window-x="0"
     inkscape:window-y="0"
     inkscape:window-maximized="0"
     inkscape:current-layer="Layer_1" />
  <path
     d="m72.966 77.504c-1.915-1.8-3.121-6.417-3.121-9.275 0-5.344 4.193-11.735 9.42-11.889l-16.55-28.976-16.569 29.01c4.916.482 8.76 6.737 8.76 11.855 0 2.858-1.206 7.475-3.121 9.275z"
     fill="#f7f8fc"
     id="path2" />
  <path
     d="m62.671 56.348v-29.707"
     fill="#fff"
     id="path4" />
  <path
     d="m62.671 58.349c-1.104 0-2-.896-2-2v-29.708c0-1.104.896-2 2-2s2 .896 2 2v29.708c0 1.104-.896 2-2 2z"
     fill="#e29e9a"
     id="path6"
     style="fill:#c8ef7b;fill-opacity:1" />
  <path
     d="m46.215 77.504h32.299v34.496h-32.299z"
     fill="#e29e9a"
     id="path8"
     style="fill:#c8ef7b;fill-opacity:1" />
  <path
     d="m2 62.308h15.948v16.192h-15.948z"
     fill="#f7f8fc"
     id="path10" />
  <path
     d="m9.974 62.308h7.974v16.192h-7.974z"
     fill="#d2edf8"
     id="path12"
     style="fill:#c2e7ee;fill-opacity:1" />
  <path
     d="m5.987 10h15.948v16.192h-15.948z"
     fill="#f7f8fc"
     id="path14" />
  <path
     d="m13.961 10h7.974v16.192h-7.974z"
     fill="#d2edf8"
     id="path16"
     style="fill:#c2e7ee;fill-opacity:1" />
  <path
     d="m54.39 10h15.948v16.192h-15.948z"
     fill="#f7f8fc"
     id="path18" />
  <path
     d="m62.364 10h7.974v16.192h-7.974z"
     fill="#d2edf8"
     id="path20"
     style="fill:#c2e7ee;fill-opacity:1" />
  <path
     d="m103.423 10h15.948v16.192h-15.948z"
     fill="#f7f8fc"
     id="path22" />
  <path
     d="m111.397 10h7.974v16.192h-7.974z"
     fill="#d2edf8"
     id="path24"
     style="fill:#c2e7ee;fill-opacity:1" />
  <path
     d="m106.052 62.308h15.948v16.192h-15.948z"
     fill="#f7f8fc"
     id="path26" />
  <path
     d="m114.026 62.308h7.974v16.192h-7.974z"
     fill="#d2edf8"
     id="path28"
     style="fill:#c2e7ee;fill-opacity:1" />
  <path
     d="m122 61.308h-5.827c-.445-2.564-1.076-5.091-1.909-7.563-3.858-11.463-10.82-18.691-14.626-21.979-7.261-6.276-14.543-9.279-20.46-10.669h22.245v6.096c0 1.104.896 2 2 2h15.948c1.104 0 2-.896 2-2v-16.193c0-1.104-.896-2-2-2h-15.948c-1.104 0-2 .896-2 2v6.096h-29.084v-6.096c0-1.104-.896-2-2-2h-15.948c-1.104 0-2 .896-2 2v6.096h-28.456v-6.096c0-1.104-.896-2-2-2h-15.948c-1.104 0-2 .896-2 2v16.191c0 1.104.896 2 2 2h15.948c1.104 0 2-.896 2-2v-6.096h22.559c-5.972 1.335-13.919 4.26-21.334 10.668-3.806 3.29-10.768 10.519-14.625 21.98-.832 2.471-1.463 4.998-1.908 7.563h-6.627c-1.104 0-2 .896-2 2v16.194c0 1.104.896 2 2 2h15.948c1.104 0 2-.896 2-2v-16.192c0-1.104-.896-2-2-2h-5.258c.402-2.13.942-4.23 1.635-6.288 3.555-10.56 9.953-17.207 13.45-20.229 9.213-7.962 19.329-10.074 24.616-10.621v3.023c0 1.104.896 2 2 2h5.548l-15.529 27.19c-.707 1.237.128 2.845 1.542 2.982 3.746.367 6.955 5.73 6.955 9.864 0 2.429-.953 5.713-2.037 7.275h-4.655c-1.104 0-2 .896-2 2v34.496c0 1.104.896 2 2 2h32.3c1.104 0 2-.896 2-2v-34.496c0-1.104-.896-2-2-2h-4.632c-1.084-1.563-2.037-4.847-2.037-7.275 0-4.353 3.451-9.771 7.479-9.89 1.481-.043 2.414-1.703 1.678-2.991l-15.512-27.157h4.848c1.104 0 2-.896 2-2v-3.409c.275.198-.362-.037 0 0 5.897.595 15.761 3.296 24.685 11.008 3.497 3.021 9.895 9.667 13.45 20.229.693 2.059 1.239 4.159 1.641 6.288h-6.063c-1.104 0-2 .896-2 2v16.193c0 1.104.896 2 2 2h15.948c1.104 0 2-.896 2-2v-16.192c0-1.105-.896-2-2-2zm-16.577-48.308h11.948v12.191h-11.948zm-85.488 12.191h-11.948v-12.191h11.948zm-3.987 52.309h-11.948v-12.192h11.948zm60.567 33.5h-28.3v-30.496h28.3zm-8.669-41.771c0 1.874.495 4.793 1.533 7.275h-14.006c1.038-2.482 1.533-5.401 1.533-7.275 0-5.068-3.174-10.951-7.762-13.071l13.571-23.762 13.472 23.586c-4.875 1.956-8.341 8.007-8.341 13.247zm.493-44.038h-11.948v-12.191h11.948zm51.661 52.309h-11.948v-12.192h11.948z"
     fill="#43484a"
     id="path30" />
  <rect
     style="fill:#ffffff;fill-opacity:0.19607843;stroke-width:0.47989684"
     id="rect853-0"
     width="72.07695"
     height="118.88982"
     x="-79.722855"
     y="-70.064552" />
  <rect
     style="fill:#ffffff;fill-opacity:0.48235294;stroke-width:0.22173506"
     id="rect853-0-5-1"
     width="72.07695"
     height="25.381514"
     x="-81.487625"
     y="110.63606" />
</svg>

<svg xmlns="http://www.w3.org/2000/svg" viewBox="0 0 124 124"><path d="M72.966 77.504c-1.915-1.8-3.121-6.417-3.121-9.275 0-5.344 4.193-11.735 9.42-11.889l-16.55-28.976-16.569 29.01c4.916.482 8.76 6.737 8.76 11.855 0 2.858-1.206 7.475-3.121 9.275z" fill="#f7f8fc"/><path d="M62.671 56.348V26.641" fill="#fff"/><path d="M62.671 58.349c-1.104 0-2-.896-2-2V26.641c0-1.104.896-2 2-2s2 .896 2 2v29.708c0 1.104-.896 2-2 2zM46.215 77.504h32.299V112H46.215z" fill="#c8ef7b"/><path d="M2 62.308h15.948V78.5H2z" fill="#f7f8fc"/><path d="M9.974 62.308h7.974V78.5H9.974z" fill="#c2e7ee"/><path d="M5.987 10h15.948v16.192H5.987z" fill="#f7f8fc"/><path d="M13.961 10h7.974v16.192h-7.974z" fill="#c2e7ee"/><path d="M54.39 10h15.948v16.192H54.39z" fill="#f7f8fc"/><path d="M62.364 10h7.974v16.192h-7.974z" fill="#c2e7ee"/><path d="M103.423 10h15.948v16.192h-15.948z" fill="#f7f8fc"/><path d="M111.397 10h7.974v16.192h-7.974z" fill="#c2e7ee"/><path d="M106.052 62.308H122V78.5h-15.948z" fill="#f7f8fc"/><path d="M114.026 62.308H122V78.5h-7.974z" fill="#c2e7ee"/><path d="M122 61.308h-5.827c-.445-2.564-1.076-5.091-1.909-7.563-3.858-11.463-10.82-18.691-14.626-21.979-7.261-6.276-14.543-9.279-20.46-10.669h22.245v6.096c0 1.104.896 2 2 2h15.948c1.104 0 2-.896 2-2V11c0-1.104-.896-2-2-2h-15.948c-1.104 0-2 .896-2 2v6.096H72.339V11c0-1.104-.896-2-2-2H54.391c-1.104 0-2 .896-2 2v6.096H23.935V11c0-1.104-.896-2-2-2H5.987c-1.104 0-2 .896-2 2v16.191c0 1.104.896 2 2 2h15.948c1.104 0 2-.896 2-2v-6.096h22.559c-5.972 1.335-13.919 4.26-21.334 10.668-3.806 3.29-10.768 10.519-14.625 21.98-.832 2.471-1.463 4.998-1.908 7.563H2c-1.104 0-2 .896-2 2V79.5c0 1.104.896 2 2 2h15.948c1.104 0 2-.896 2-2V63.308c0-1.104-.896-2-2-2H12.69c.402-2.13.942-4.23 1.635-6.288 3.555-10.56 9.953-17.207 13.45-20.229 9.213-7.962 19.329-10.074 24.616-10.621v3.023c0 1.104.896 2 2 2h5.548L44.41 56.383c-.707 1.237.128 2.845 1.542 2.982 3.746.367 6.955 5.73 6.955 9.864 0 2.429-.953 5.713-2.037 7.275h-4.655c-1.104 0-2 .896-2 2V113c0 1.104.896 2 2 2h32.3c1.104 0 2-.896 2-2V78.504c0-1.104-.896-2-2-2h-4.632c-1.084-1.563-2.037-4.847-2.037-7.275 0-4.353 3.451-9.771 7.479-9.89 1.481-.043 2.414-1.703 1.678-2.991L65.491 29.191h4.848c1.104 0 2-.896 2-2v-3.409c.275.198-.362-.037 0 0 5.897.595 15.761 3.296 24.685 11.008 3.497 3.021 9.895 9.667 13.45 20.229.693 2.059 1.239 4.159 1.641 6.288h-6.063c-1.104 0-2 .896-2 2V79.5c0 1.104.896 2 2 2H122c1.104 0 2-.896 2-2V63.308c0-1.105-.896-2-2-2zM105.423 13h11.948v12.191h-11.948zM19.935 25.191H7.987V13h11.948zM15.948 77.5H4V65.308h11.948zM76.515 111h-28.3V80.504h28.3zm-8.669-41.771c0 1.874.495 4.793 1.533 7.275H55.373c1.038-2.482 1.533-5.401 1.533-7.275 0-5.068-3.174-10.951-7.762-13.071l13.571-23.762 13.472 23.586c-4.875 1.956-8.341 8.007-8.341 13.247zm.493-44.038H56.391V13h11.948zM120 77.5h-11.948V65.308H120z" fill="#43484a"/><path fill="#fff" fill-opacity=".19608" d="M-79.72285-70.06455H-7.6459V48.82527h-72.07695z"/><path fill="#fff" fill-opacity=".48235" d="M-81.48762 110.63606h72.07695v25.38151h-72.07695z"/></svg>
